Newaita/actions/22/audio-volume-overamplified-symbolic.svg

<svg height="22" viewBox="0 0 22 22" width="22" xmlns="http://www.w3.org/2000/svg"><g fill="#424242"><path d="m10.003906 1.996094c-.007812 0-.015625 0-.023437 0-.261719.007812-.503907.125-.671875.324218l-4.273438 5.132813h-.03125v7.269531h.03125l4.273438 5.128906c.246094.292969.648437.402344 1.003906.273438.359375-.128906.597656-.46875.597656-.851562v-16.371094c0-.503906-.40625-.910156-.90625-.90625zm-7.273437 5.457031c-.5 0-.90625.40625-.90625.90625v5.457031c0 .5.40625.90625.90625.90625h1.363281v-7.269531zm0 0"/><path d="m20.011719 11.085938c0 .503906-.40625.910156-.910157.910156h-5.457031c-.503906 0-.910156-.40625-.910156-.910156 0-.5.40625-.910157.910156-.910157h5.457031c.503907 0 .910157.410157.910157.910157zm0 0"/><path d="m19.15625 4.160156c.253906.433594.105469.992188-.332031 1.242188l-4.726563 2.726562c-.433594.253906-.992187.105469-1.242187-.332031-.25-.433594-.101563-.992187.332031-1.242187l4.726562-2.726563c.4375-.253906.992188-.105469 1.242188.332031zm0 0"/><path d="m19.15625 17.785156c.253906-.433594.105469-.988281-.332031-1.242187l-4.726563-2.726563c-.433594-.25-.992187-.101562-1.242187.332032-.25.433593-.101563.992187.332031 1.242187l4.726562 2.730469c.4375.25.992188.101562 1.242188-.335938zm0 0"/></g></svg>

<svg xmlns="http://www.w3.org/2000/svg" xmlns:xlink="http://www.w3.org/1999/xlink" width="22px" height="22px" viewBox="0 0 22 22" version="1.1">
<g id="surface1">
     <defs>
  <style id="current-color-scheme" type="text/css">
   .ColorScheme-Text { color:#424242; } .ColorScheme-Highlight { color:#eeeeee; }
  </style>
 </defs>
<path style="fill:currentColor" class="ColorScheme-Text" d="M 10.003906 1.996094 C 9.996094 1.996094 9.988281 1.996094 9.980469 1.996094 C 9.71875 2.003906 9.476562 2.121094 9.308594 2.320312 L 5.035156 7.453125 L 5.003906 7.453125 L 5.003906 14.722656 L 5.035156 14.722656 L 9.308594 19.851562 C 9.554688 20.144531 9.957031 20.253906 10.3125 20.125 C 10.671875 19.996094 10.910156 19.65625 10.910156 19.273438 L 10.910156 2.902344 C 10.910156 2.398438 10.503906 1.992188 10.003906 1.996094 Z M 2.730469 7.453125 C 2.230469 7.453125 1.824219 7.859375 1.824219 8.359375 L 1.824219 13.816406 C 1.824219 14.316406 2.230469 14.722656 2.730469 14.722656 L 4.09375 14.722656 L 4.09375 7.453125 Z M 2.730469 7.453125 "/>
     <defs>
  <style id="current-color-scheme" type="text/css">
   .ColorScheme-Text { color:#424242; } .ColorScheme-Highlight { color:#eeeeee; }
  </style>
 </defs>
<path style="fill:currentColor" class="ColorScheme-Text" d="M 20.011719 11.085938 C 20.011719 11.589844 19.605469 11.996094 19.101562 11.996094 L 13.644531 11.996094 C 13.140625 11.996094 12.734375 11.589844 12.734375 11.085938 C 12.734375 10.585938 13.140625 10.175781 13.644531 10.175781 L 19.101562 10.175781 C 19.605469 10.175781 20.011719 10.585938 20.011719 11.085938 Z M 20.011719 11.085938 "/>
     <defs>
  <style id="current-color-scheme" type="text/css">
   .ColorScheme-Text { color:#424242; } .ColorScheme-Highlight { color:#eeeeee; }
  </style>
 </defs>
<path style="fill:currentColor" class="ColorScheme-Text" d="M 19.15625 4.160156 C 19.410156 4.59375 19.261719 5.152344 18.824219 5.402344 L 14.097656 8.128906 C 13.664062 8.382812 13.105469 8.234375 12.855469 7.796875 C 12.605469 7.363281 12.753906 6.804688 13.1875 6.554688 L 17.914062 3.828125 C 18.351562 3.574219 18.90625 3.722656 19.15625 4.160156 Z M 19.15625 4.160156 "/>
     <defs>
  <style id="current-color-scheme" type="text/css">
   .ColorScheme-Text { color:#424242; } .ColorScheme-Highlight { color:#eeeeee; }
  </style>
 </defs>
<path style="fill:currentColor" class="ColorScheme-Text" d="M 19.15625 17.785156 C 19.410156 17.351562 19.261719 16.796875 18.824219 16.542969 L 14.097656 13.816406 C 13.664062 13.566406 13.105469 13.714844 12.855469 14.148438 C 12.605469 14.582031 12.753906 15.140625 13.1875 15.390625 L 17.914062 18.121094 C 18.351562 18.371094 18.90625 18.222656 19.15625 17.785156 Z M 19.15625 17.785156 "/>
</g>
</svg>
